azure-patterns/svg-decentralized-identity.svg

<svg xmlns="http://www.w3.org/2000/svg" viewBox="0 0 49 49">
                                
                            
    <path d="M14.2778 35.7966C14.2778 30.2743 18.7478 25.8043 24.2701 25.8043C29.7924 25.8043 34.2624 30.2743 34.2624 35.7966H14.2778Z" fill="#0078D7"></path>
    <path d="M29.9606 18.5561C29.9606 21.6877 27.4268 24.2215 24.2953 24.2215C21.1637 24.2215 18.6299 21.6877 18.6299 18.5561C18.6299 15.4246 21.1637 12.8907 24.2953 12.8907C27.4268 12.8907 29.9606 15.433 29.9606 18.5561Z" fill="#0078D7"></path>
    <path d="M24.3038 46.9338L4.71484 35.6199V13.0004L24.3038 1.68652L43.8927 13.0004V35.6199L24.3038 46.9338ZM5.97756 34.8959L24.3038 45.4775L42.63 34.8959V13.7244L24.3038 3.14285L5.97756 13.7244V34.8959Z" fill="#50E6FF"></path>
    <path d="M24.1775 5.61766C25.6187 5.61766 26.7871 4.4493 26.7871 3.00805C26.7871 1.5668 25.6187 0.398438 24.1775 0.398438C22.7362 0.398438 21.5679 1.5668 21.5679 3.00805C21.5679 4.4493 22.7362 5.61766 24.1775 5.61766Z" fill="#0078D7"></path>
    <path d="M24.1775 48.373C25.6187 48.373 26.7871 47.2047 26.7871 45.7634C26.7871 44.3222 25.6187 43.1538 24.1775 43.1538C22.7362 43.1538 21.5679 44.3222 21.5679 45.7634C21.5679 47.2047 22.7362 48.373 24.1775 48.373Z" fill="#0078D7"></path>
    <path d="M43.2024 38.4147C44.6436 38.4147 45.812 37.2463 45.812 35.805C45.812 34.3638 44.6436 33.1954 43.2024 33.1954C41.7611 33.1954 40.5928 34.3638 40.5928 35.805C40.5928 37.2463 41.7611 38.4147 43.2024 38.4147Z" fill="#0078D7"></path>
    <path d="M43.2024 15.6184C44.6436 15.6184 45.812 14.45 45.812 13.0088C45.812 11.5675 44.6436 10.3992 43.2024 10.3992C41.7611 10.3992 40.5928 11.5675 40.5928 13.0088C40.5928 14.45 41.7611 15.6184 43.2024 15.6184Z" fill="#0078D7"></path>
    <path d="M5.31291 38.3473C6.70302 38.3473 7.82992 37.2204 7.82992 35.8302C7.82992 34.4401 6.70302 33.3132 5.31291 33.3132C3.9228 33.3132 2.7959 34.4401 2.7959 35.8302C2.7959 37.2204 3.9228 38.3473 5.31291 38.3473Z" fill="#0078D7"></path>
    <path d="M5.31291 15.7025C6.70302 15.7025 7.82992 14.5756 7.82992 13.1855C7.82992 11.7954 6.70302 10.6685 5.31291 10.6685C3.9228 10.6685 2.7959 11.7954 2.7959 13.1855C2.7959 14.5756 3.9228 15.7025 5.31291 15.7025Z" fill="#0078D7"></path>
</svg>

<svg xmlns="http://www.w3.org/2000/svg" viewBox="0 0 49 49"><path d="M14.278 35.797a9.988 9.988 0 0 1 9.992-9.993 9.988 9.988 0 0 1 9.992 9.993H14.278zM29.96 18.556a5.662 5.662 0 0 1-5.665 5.665 5.662 5.662 0 0 1-5.665-5.665 5.662 5.662 0 0 1 5.665-5.665 5.667 5.667 0 0 1 5.666 5.665z" fill="#0078D7"/><path d="M24.304 46.934L4.714 35.62V13l19.59-11.313L43.893 13v22.62l-19.59 11.314zM5.978 34.896l18.326 10.581L42.63 34.897V13.724L24.304 3.143 5.978 13.724v21.172z" fill="#50E6FF"/><path d="M24.177 5.618a2.61 2.61 0 1 0 0-5.22 2.61 2.61 0 0 0 0 5.22zM24.177 48.373a2.61 2.61 0 1 0 0-5.22 2.61 2.61 0 0 0 0 5.22zM43.202 38.415a2.61 2.61 0 1 0 0-5.22 2.61 2.61 0 0 0 0 5.22zM43.202 15.618a2.61 2.61 0 1 0 0-5.219 2.61 2.61 0 0 0 0 5.22zM5.313 38.347a2.517 2.517 0 1 0 0-5.034 2.517 2.517 0 0 0 0 5.034zM5.313 15.703a2.517 2.517 0 1 0 0-5.035 2.517 2.517 0 0 0 0 5.035z" fill="#0078D7"/></svg>
